public/fonts/icons/files-copyright.svg

<?xml version="1.0" encoding="UTF-8" standalone="no"?>
<svg width="60px" height="60px" viewBox="0 0 60 60" version="1.1" xmlns="http://www.w3.org/2000/svg" xmlns:xlink="http://www.w3.org/1999/xlink" xmlns:sketch="http://www.bohemiancoding.com/sketch/ns">
    <!-- Generator: Sketch 3.1.1 (8761) - http://www.bohemiancoding.com/sketch -->
    <title>Artboard</title>
    <desc>Created with Sketch.</desc>
    <defs></defs>
    <g id="Page-1" stroke="none" stroke-width="1" fill="none" fill-rule="evenodd" sketch:type="MSPage">
        <g id="Artboard" sketch:type="MSArtboardGroup">
            <g id="icon-copyright" sketch:type="MSLayerGroup">
                <g id="Page-1" sketch:type="MSShapeGroup">
                    <g id="icon-copyright">
                        <g id="Icons">
                            <g id="Artboard-1">
                                <g id="icon-copyright">
                                    <g id="bg">
                                        <circle id="Oval-5" fill="#000000" cx="30" cy="30" r="30"></circle>
                                        <circle id="Oval-6" fill="#FFFFFF" cx="30" cy="30" r="24"></circle>
                                    </g>
                                    <path d="M38.0893544,24.432153 L33.9935271,26.5672869 C33.555951,25.6563347 33.019968,25.0164651 32.3836673,24.6515095 C31.7464113,24.2875118 31.1550147,24.104555 30.6085222,24.104555 C27.8798815,24.104555 26.5136504,25.9101753 26.5136504,29.5233315 C26.5136504,31.1651528 26.8595075,32.4774603 27.5502663,33.4631278 C28.2419806,34.4487953 29.2613992,34.942108 30.6085222,34.942108 C32.392266,34.942108 33.64767,34.0656398 34.3766451,32.3146192 L38.1428571,34.2303967 C37.3422266,35.7275767 36.2320443,36.9038641 34.8123104,37.7611745 C33.3944873,38.6194428 31.8285762,39.047619 30.1174433,39.047619 C27.3878472,39.047619 25.1846801,38.2094664 23.510808,36.5293296 C21.836936,34.8511086 21,32.5157759 21,29.5242894 C21,26.6046446 21.8464901,24.2884697 23.5385148,22.572891 C25.2305396,20.8582702 27.3687391,20.0000019 29.9540688,20.0000019 C33.7403444,19.9980861 36.4508324,21.4761084 38.0893544,24.432153 L38.0893544,24.432153 L38.0893544,24.432153 Z" id="Shape-2" fill="#000000"></path>
                                </g>
                            </g>
                        </g>
                    </g>
                </g>
            </g>
        </g>
    </g>
</svg>

<svg width="60" height="60" viewBox="0 0 60 60" xmlns="http://www.w3.org/2000/svg"><title>Files Copyright</title><g fill="none" fill-rule="evenodd"><circle fill="#000" cx="30" cy="30" r="30"/><circle fill="#FFF" cx="30" cy="30" r="24"/><path d="M38.09 24.432l-4.096 2.135c-.438-.91-.974-1.55-1.61-1.915-.638-.364-1.23-.547-1.775-.547-2.73 0-4.096 1.805-4.096 5.418 0 1.642.346 2.954 1.036 3.94.692.986 1.71 1.48 3.06 1.48 1.782 0 3.038-.877 3.767-2.628l3.766 1.915c-.8 1.498-1.91 2.674-3.33 3.53-1.42.86-2.984 1.288-4.696 1.288-2.73 0-4.932-.84-6.606-2.52-1.673-1.677-2.51-4.012-2.51-7.004 0-2.92.846-5.236 2.54-6.95C25.23 20.857 27.37 20 29.953 20c3.786-.002 6.497 1.476 8.135 4.432z" fill="#000"/></g></svg>
